X:464
T:Lichfield Tattoo
M:4/4
L:1/8
K:G
BB | B2 AA A2 cc | c2 BB B2 GG | G2 F2 G2 A2 | BA Bc B2 BB | 
B2 AA A2 cc | c2 BB B2 c2 | de dc B2 A2 | G4 :| 
B2 c2 | d3 e de de | c3d cd cd | B3c Bc Bc | A6 AB | 
c2 Ac B2 GB | A6 AB | c2 Ac B2 GB | A6 Bc | 
d3 e de de | c3d cd cd | B3c Bc Bc | A6 AB | 
c2 Ac B2 GB | A6 AB | c2 Ac B2 GB | A6 |] 

